X:1
T:Rondeau from Abdelazer
T:Rondeau from Abdelazer
T:Henry Purcell
C:Henry Purcell
L:1/8
M:3/2
K:Dmin
V:1 treble 
V:1
 D4 F4 A4 | d2 ef gfed ^c4 | a2 df af d2 b4 | g2 ce ge c2 a4 | f2 Bd fd B2 g4 | e2 A^c ec A2 f4 | %6
 efed ^c2 f2 efed | A2 d2 ^cded d4 || F4 A4 c4 | f2 ga bagf e4 | a2 ba g2 ag f2 FG | %11
 A2 BA G2 AG F2 fe | d2 ed c2 dc B2 gf | e2 fe d2 ed c2 ag | f2 gf e2 fe d2 g2 | c2 f2 efgf f4 || %16
 c3 d cd e2 fedc | =B3 c Bc d2 edcB | c3 d cd e2 fe d2 | c6 =B2 A4 | e3 f ef g2 agfe | %21
 f3 g fg a2 bagf | e3 f ef g2 agfe | f2 g2 g4 a4 || %24

